icons/line/emoji-sad.svg

<svg width="24" height="24" viewBox="0 0 24 24" fill="none" xmlns="http://www.w3.org/2000/svg">
<path fill-rule="evenodd" clip-rule="evenodd" d="M4 12C4 7.58172 7.58172 4 12 4C16.4183 4 20 7.58172 20 12C20 16.4183 16.4183 20 12 20C7.58172 20 4 16.4183 4 12ZM12 2C6.47715 2 2 6.47715 2 12C2 17.5228 6.47715 22 12 22C17.5228 22 22 17.5228 22 12C22 6.47715 17.5228 2 12 2ZM9.7568 15.6536C9.3958 16.0716 8.76433 16.1178 8.34636 15.7568C7.92839 15.3958 7.8822 14.7643 8.2432 14.3464C9.05258 13.4092 10.2838 12.7536 12 12.7536C13.7162 12.7536 14.9474 13.4092 15.7568 14.3464C16.1178 14.7643 16.0716 15.3958 15.6536 15.7568C15.2356 16.1178 14.6042 16.0716 14.2432 15.6536C13.8244 15.1688 13.1516 14.7536 12 14.7536C10.8484 14.7536 10.1756 15.1688 9.7568 15.6536ZM8 10C8 9.44772 8.44772 9 9 9H9.01C9.56228 9 10.01 9.44772 10.01 10C10.01 10.5523 9.56228 11 9.01 11H9C8.44772 11 8 10.5523 8 10ZM15 9C14.4477 9 14 9.44772 14 10C14 10.5523 14.4477 11 15 11H15.01C15.5623 11 16.01 10.5523 16.01 10C16.01 9.44772 15.5623 9 15.01 9H15Z" fill="currentColor"/>
</svg>

<svg width="24" height="24" fill="none" xmlns="http://www.w3.org/2000/svg"><path fill-rule="evenodd" clip-rule="evenodd" d="M4 12a8 8 0 1116 0 8 8 0 01-16 0zm8-10C6.477 2 2 6.477 2 12s4.477 10 10 10 10-4.477 10-10S17.523 2 12 2zM9.757 15.654a1 1 0 11-1.514-1.308c.81-.937 2.04-1.592 3.757-1.592 1.716 0 2.947.655 3.757 1.592a1 1 0 11-1.514 1.308c-.419-.485-1.091-.9-2.243-.9s-1.824.415-2.243.9zM8 10a1 1 0 011-1h.01a1 1 0 010 2H9a1 1 0 01-1-1zm7-1a1 1 0 100 2h.01a1 1 0 100-2H15z" fill="currentColor"/></svg>
